src/assets/images/svg/social/logo-mail.svg

<svg width="45" height="40" viewBox="0 0 45 40" fill="none" xmlns="http://www.w3.org/2000/svg">
<path d="M37.2656 6.25H7.73438C6.42944 6.25124 5.17835 6.71258 4.25563 7.53278C3.3329 8.35298 2.8139 9.46506 2.8125 10.625V29.375C2.8139 30.5349 3.3329 31.647 4.25563 32.4672C5.17835 33.2874 6.42944 33.7488 7.73438 33.75H37.2656C38.5706 33.7488 39.8216 33.2874 40.7444 32.4672C41.6671 31.647 42.1861 30.5349 42.1875 29.375V10.625C42.1861 9.46506 41.6671 8.35298 40.7444 7.53278C39.8216 6.71258 38.5706 6.25124 37.2656 6.25ZM36.0193 13.4867L23.3631 22.2367C23.1163 22.4073 22.8126 22.4998 22.5 22.4998C22.1874 22.4998 21.8837 22.4073 21.6369 22.2367L8.98066 13.4867C8.83196 13.3869 8.70707 13.2618 8.61322 13.1187C8.51938 12.9756 8.45847 12.8174 8.43403 12.6532C8.40958 12.489 8.4221 12.3221 8.47084 12.1622C8.51958 12.0024 8.60358 11.8527 8.71796 11.7219C8.83233 11.5912 8.9748 11.4819 9.13709 11.4005C9.29938 11.3191 9.47824 11.2672 9.6633 11.2478C9.84835 11.2284 10.0359 11.2419 10.215 11.2874C10.3942 11.333 10.5614 11.4098 10.7068 11.5133L22.5 19.6664L34.2932 11.5133C34.5881 11.3153 34.9588 11.2285 35.3251 11.2716C35.6914 11.3147 36.024 11.4842 36.2508 11.7435C36.4776 12.0028 36.5805 12.3311 36.5372 12.6573C36.4939 12.9835 36.3078 13.2815 36.0193 13.4867Z" fill="url(#paint0_linear_93_604)"/>
<defs>
<linearGradient id="paint0_linear_93_604" x1="2" y1="20" x2="24.5" y2="20" gradientUnits="userSpaceOnUse">
<stop stop-color="#009DF8"/>
<stop offset="1" stop-color="#708AF4"/>
</linearGradient>
</defs>
</svg>

<svg xmlns="http://www.w3.org/2000/svg" width="45" height="40" fill="none"><path fill="url(#a)" d="M37.266 6.25H7.734c-1.305.001-2.556.463-3.478 1.283-.923.82-1.442 1.932-1.444 3.092v18.75c.002 1.16.52 2.272 1.444 3.092.922.82 2.173 1.282 3.478 1.283h29.532c1.305-.001 2.556-.463 3.478-1.283.923-.82 1.442-1.932 1.444-3.092v-18.75c-.002-1.16-.52-2.272-1.444-3.092-.922-.82-2.173-1.282-3.478-1.283Zm-1.247 7.237-12.656 8.75c-.247.17-.55.263-.863.263-.313 0-.616-.093-.863-.263L8.98 13.487a1.312 1.312 0 0 1-.368-.368 1.16 1.16 0 0 1-.179-.466 1.116 1.116 0 0 1 .037-.49c.049-.16.133-.31.247-.441.114-.13.257-.24.42-.322a1.577 1.577 0 0 1 1.078-.113c.178.046.345.123.49.226L22.5 19.666l11.793-8.153a1.538 1.538 0 0 1 1.032-.241c.366.043.699.212.926.471.227.26.33.588.286.914-.043.326-.23.624-.518.83Z"/><defs><linearGradient id="a" x1="2" x2="24.5" y1="20" y2="20" gradientUnits="userSpaceOnUse"><stop stop-color="#009DF8"/><stop offset="1" stop-color="#708AF4"/></linearGradient></defs></svg>
